components/Common/Svg/svgs/titledTensorFlow.svg

<svg width="100" height="143" viewBox="0 0 100 143" fill="none" xmlns="http://www.w3.org/2000/svg">
<path d="M9.108 120.454V121.786H5.688V133H4.05V121.786H0.612V120.454H9.108ZM20.1243 127.69C20.1243 128.002 20.1063 128.332 20.0703 128.68H12.1863C12.2463 129.652 12.5763 130.414 13.1763 130.966C13.7883 131.506 14.5263 131.776 15.3903 131.776C16.0983 131.776 16.6863 131.614 17.1543 131.29C17.6343 130.954 17.9703 130.51 18.1623 129.958H19.9263C19.6623 130.906 19.1343 131.68 18.3423 132.28C17.5503 132.868 16.5663 133.162 15.3903 133.162C14.4543 133.162 13.6143 132.952 12.8703 132.532C12.1383 132.112 11.5623 131.518 11.1423 130.75C10.7223 129.97 10.5123 129.07 10.5123 128.05C10.5123 127.03 10.7163 126.136 11.1243 125.368C11.5323 124.6 12.1023 124.012 12.8343 123.604C13.5783 123.184 14.4303 122.974 15.3903 122.974C16.3263 122.974 17.1543 123.178 17.8743 123.586C18.5943 123.994 19.1463 124.558 19.5303 125.278C19.9263 125.986 20.1243 126.79 20.1243 127.69ZM18.4323 127.348C18.4323 126.724 18.2943 126.19 18.0183 125.746C17.7423 125.29 17.3643 124.948 16.8843 124.72C16.4163 124.48 15.8943 124.36 15.3183 124.36C14.4903 124.36 13.7823 124.624 13.1943 125.152C12.6183 125.68 12.2883 126.412 12.2043 127.348H18.4323ZM27.0924 122.956C28.2924 122.956 29.2644 123.322 30.0084 124.054C30.7524 124.774 31.1244 125.818 31.1244 127.186V133H29.5044V127.42C29.5044 126.436 29.2584 125.686 28.7664 125.17C28.2744 124.642 27.6024 124.378 26.7504 124.378C25.8864 124.378 25.1964 124.648 24.6804 125.188C24.1764 125.728 23.9244 126.514 23.9244 127.546V133H22.2864V123.136H23.9244V124.54C24.2484 124.036 24.6864 123.646 25.2384 123.37C25.8024 123.094 26.4204 122.956 27.0924 122.956ZM37.2921 133.162C36.5361 133.162 35.8581 133.036 35.2581 132.784C34.6581 132.52 34.1841 132.16 33.8361 131.704C33.4881 131.236 33.2961 130.702 33.2601 130.102H34.9521C35.0001 130.594 35.2281 130.996 35.6361 131.308C36.0561 131.62 36.6021 131.776 37.2741 131.776C37.8981 131.776 38.3901 131.638 38.7501 131.362C39.1101 131.086 39.2901 130.738 39.2901 130.318C39.2901 129.886 39.0981 129.568 38.7141 129.364C38.3301 129.148 37.7361 128.938 36.9321 128.734C36.2001 128.542 35.6001 128.35 35.1321 128.158C34.6761 127.954 34.2801 127.66 33.9441 127.276C33.6201 126.88 33.4581 126.364 33.4581 125.728C33.4581 125.224 33.6081 124.762 33.9081 124.342C34.2081 123.922 34.6341 123.592 35.1861 123.352C35.7381 123.1 36.3681 122.974 37.0761 122.974C38.1681 122.974 39.0501 123.25 39.7221 123.802C40.3941 124.354 40.7541 125.11 40.8021 126.07H39.1641C39.1281 125.554 38.9181 125.14 38.5341 124.828C38.1621 124.516 37.6581 124.36 37.0221 124.36C36.4341 124.36 35.9661 124.486 35.6181 124.738C35.2701 124.99 35.0961 125.32 35.0961 125.728C35.0961 126.052 35.1981 126.322 35.4021 126.538C35.6181 126.742 35.8821 126.91 36.1941 127.042C36.5181 127.162 36.9621 127.3 37.5261 127.456C38.2341 127.648 38.8101 127.84 39.2541 128.032C39.6981 128.212 40.0761 128.488 40.3881 128.86C40.7121 129.232 40.8801 129.718 40.8921 130.318C40.8921 130.858 40.7421 131.344 40.4421 131.776C40.1421 132.208 39.7161 132.55 39.1641 132.802C38.6241 133.042 38.0001 133.162 37.2921 133.162ZM47.5064 133.162C46.5824 133.162 45.7424 132.952 44.9864 132.532C44.2424 132.112 43.6544 131.518 43.2224 130.75C42.8024 129.97 42.5924 129.07 42.5924 128.05C42.5924 127.042 42.8084 126.154 43.2404 125.386C43.6844 124.606 44.2844 124.012 45.0404 123.604C45.7964 123.184 46.6424 122.974 47.5784 122.974C48.5144 122.974 49.3604 123.184 50.1164 123.604C50.8724 124.012 51.4664 124.6 51.8984 125.368C52.3424 126.136 52.5644 127.03 52.5644 128.05C52.5644 129.07 52.3364 129.97 51.8804 130.75C51.4364 131.518 50.8304 132.112 50.0624 132.532C49.2944 132.952 48.4424 133.162 47.5064 133.162ZM47.5064 131.722C48.0944 131.722 48.6464 131.584 49.1624 131.308C49.6784 131.032 50.0924 130.618 50.4044 130.066C50.7284 129.514 50.8904 128.842 50.8904 128.05C50.8904 127.258 50.7344 126.586 50.4224 126.034C50.1104 125.482 49.7024 125.074 49.1984 124.81C48.6944 124.534 48.1484 124.396 47.5604 124.396C46.9604 124.396 46.4084 124.534 45.9044 124.81C45.4124 125.074 45.0164 125.482 44.7164 126.034C44.4164 126.586 44.2664 127.258 44.2664 128.05C44.2664 128.854 44.4104 129.532 44.6984 130.084C44.9984 130.636 45.3944 131.05 45.8864 131.326C46.3784 131.59 46.9184 131.722 47.5064 131.722ZM56.356 124.738C56.644 124.174 57.052 123.736 57.58 123.424C58.12 123.112 58.774 122.956 59.542 122.956V124.648H59.11C57.274 124.648 56.356 125.644 56.356 127.636V133H54.718V123.136H56.356V124.738ZM68.5249 120.454V121.786H63.0709V126.016H67.4989V127.348H63.0709V133H61.4329V120.454H68.5249ZM72.1412 119.68V133H70.5032V119.68H72.1412ZM79.2349 133.162C78.3109 133.162 77.4709 132.952 76.7149 132.532C75.9709 132.112 75.3829 131.518 74.9509 130.75C74.5309 129.97 74.3209 129.07 74.3209 128.05C74.3209 127.042 74.5369 126.154 74.9689 125.386C75.4129 124.606 76.0129 124.012 76.7689 123.604C77.5249 123.184 78.3709 122.974 79.3069 122.974C80.2429 122.974 81.0889 123.184 81.8449 123.604C82.6009 124.012 83.1949 124.6 83.6269 125.368C84.0709 126.136 84.2929 127.03 84.2929 128.05C84.2929 129.07 84.0649 129.97 83.6089 130.75C83.1649 131.518 82.5589 132.112 81.7909 132.532C81.0229 132.952 80.1709 133.162 79.2349 133.162ZM79.2349 131.722C79.8229 131.722 80.3749 131.584 80.8909 131.308C81.4069 131.032 81.8209 130.618 82.1329 130.066C82.4569 129.514 82.6189 128.842 82.6189 128.05C82.6189 127.258 82.4629 126.586 82.1509 126.034C81.8389 125.482 81.4309 125.074 80.9269 124.81C80.4229 124.534 79.8769 124.396 79.2889 124.396C78.6889 124.396 78.1369 124.534 77.6329 124.81C77.1409 125.074 76.7449 125.482 76.4449 126.034C76.1449 126.586 75.9949 127.258 75.9949 128.05C75.9949 128.854 76.1389 129.532 76.4269 130.084C76.7269 130.636 77.1229 131.05 77.6149 131.326C78.1069 131.59 78.6469 131.722 79.2349 131.722ZM99.5865 123.136L96.5085 133H94.8165L92.4405 125.17L90.0645 133H88.3725L85.2765 123.136H86.9505L89.2185 131.416L91.6665 123.136H93.3405L95.7345 131.434L97.9665 123.136H99.5865Z" fill="#A0A0A0"/>
<g clip-path="url(#clip0_5292_16327)">
<path d="M56.5719 13.9995V27.9989L80.8597 41.9983V27.9989L56.5719 13.9995ZM8 27.9989V41.9983L20.1439 48.9981V34.9986L8 27.9989ZM44.4281 34.9986L32.2841 41.9983V83.9967L44.4281 91V63.0011L56.5719 70.0009V56.0014L44.4281 49.0017V34.9986Z" fill="#6A6A6A"/>
<path d="M56.5726 13.9995L20.1445 34.9986V48.9981L44.4323 34.9986V48.9981L56.5762 41.9983V13.9995H56.5726ZM93.0006 20.9992L80.8567 27.9989V41.9983L93.0006 34.9986V20.9992ZM68.7165 49.0017L56.5726 56.0014V70.0009L68.7165 63.0011V49.0017ZM56.5726 70.0009L44.4287 63.0011V91L56.5726 84.0003V70.0009Z" fill="#A3A3A3"/>
<path d="M56.5719 0L8 27.9989L20.1439 34.9986L56.5719 13.9994L80.8597 27.9989L93.0036 20.9992L56.5719 0ZM56.5719 41.9983L44.4281 48.998L56.5719 55.9978L68.7158 48.998L56.5719 41.9983Z" fill="#DBDBDB"/>
</g>
<defs>
<clipPath id="clip0_5292_16327">
<rect width="85" height="91" fill="white" transform="translate(8)"/>
</clipPath>
</defs>
</svg>

<svg width="100" height="143" viewBox="0 0 100 143" fill="none" xmlns="http://www.w3.org/2000/svg"><path d="M9.108 120.454v1.332h-3.42V133H4.05v-11.214H.612v-1.332h8.496Zm11.016 7.236c0 .312-.018.642-.054.99h-7.884c.06.972.39 1.734.99 2.286.612.54 1.35.81 2.214.81.708 0 1.296-.162 1.764-.486.48-.336.816-.78 1.008-1.332h1.764a4.284 4.284 0 0 1-1.584 2.322c-.792.588-1.776.882-2.952.882-.936 0-1.776-.21-2.52-.63a4.492 4.492 0 0 1-1.728-1.782c-.42-.78-.63-1.68-.63-2.7 0-1.02.204-1.914.612-2.682a4.254 4.254 0 0 1 1.71-1.764c.744-.42 1.596-.63 2.556-.63.936 0 1.764.204 2.484.612.72.408 1.272.972 1.656 1.692.396.708.594 1.512.594 2.412Zm-1.692-.342c0-.624-.138-1.158-.414-1.602a2.605 2.605 0 0 0-1.134-1.026c-.468-.24-.99-.36-1.566-.36-.828 0-1.536.264-2.124.792-.576.528-.906 1.26-.99 2.196h6.228Zm8.66-4.392c1.2 0 2.172.366 2.916 1.098.744.72 1.116 1.764 1.116 3.132V133h-1.62v-5.58c0-.984-.246-1.734-.738-2.25-.492-.528-1.164-.792-2.016-.792-.864 0-1.554.27-2.07.81-.504.54-.756 1.326-.756 2.358V133h-1.638v-9.864h1.638v1.404a3.266 3.266 0 0 1 1.314-1.17 4.16 4.16 0 0 1 1.854-.414Zm10.2 10.206c-.756 0-1.434-.126-2.034-.378-.6-.264-1.074-.624-1.422-1.08a2.92 2.92 0 0 1-.576-1.602h1.692c.048.492.276.894.684 1.206.42.312.966.468 1.638.468.624 0 1.116-.138 1.476-.414.36-.276.54-.624.54-1.044 0-.432-.192-.75-.576-.954-.384-.216-.978-.426-1.782-.63a14.665 14.665 0 0 1-1.8-.576 3.418 3.418 0 0 1-1.188-.882c-.324-.396-.486-.912-.486-1.548 0-.504.15-.966.45-1.386.3-.42.726-.75 1.278-.99.552-.252 1.182-.378 1.89-.378 1.092 0 1.974.276 2.646.828.672.552 1.032 1.308 1.08 2.268h-1.638c-.036-.516-.246-.93-.63-1.242-.372-.312-.876-.468-1.512-.468-.588 0-1.056.126-1.404.378-.348.252-.522.582-.522.99 0 .324.102.594.306.81.216.204.48.372.792.504.324.12.768.258 1.332.414.708.192 1.284.384 1.728.576.444.18.822.456 1.134.828.324.372.492.858.504 1.458 0 .54-.15 1.026-.45 1.458-.3.432-.726.774-1.278 1.026-.54.24-1.164.36-1.872.36Zm10.214 0c-.924 0-1.764-.21-2.52-.63a4.58 4.58 0 0 1-1.764-1.782c-.42-.78-.63-1.68-.63-2.7 0-1.008.216-1.896.648-2.664a4.51 4.51 0 0 1 1.8-1.782c.756-.42 1.602-.63 2.538-.63.936 0 1.782.21 2.538.63.756.408 1.35.996 1.782 1.764.444.768.666 1.662.666 2.682s-.228 1.92-.684 2.7a4.634 4.634 0 0 1-1.818 1.782c-.768.42-1.62.63-2.556.63Zm0-1.44c.588 0 1.14-.138 1.656-.414.516-.276.93-.69 1.242-1.242.324-.552.486-1.224.486-2.016s-.156-1.464-.468-2.016c-.312-.552-.72-.96-1.224-1.224a3.356 3.356 0 0 0-1.638-.414c-.6 0-1.152.138-1.656.414-.492.264-.888.672-1.188 1.224-.3.552-.45 1.224-.45 2.016 0 .804.144 1.482.432 2.034.3.552.696.966 1.188 1.242a3.372 3.372 0 0 0 1.62.396Zm8.85-6.984a3.16 3.16 0 0 1 1.224-1.314c.54-.312 1.194-.468 1.962-.468v1.692h-.432c-1.836 0-2.754.996-2.754 2.988V133h-1.638v-9.864h1.638v1.602Zm12.169-4.284v1.332H63.07v4.23h4.428v1.332H63.07V133h-1.638v-12.546h7.092Zm3.616-.774V133h-1.638v-13.32h1.638Zm7.094 13.482c-.924 0-1.764-.21-2.52-.63a4.58 4.58 0 0 1-1.764-1.782c-.42-.78-.63-1.68-.63-2.7 0-1.008.216-1.896.648-2.664a4.51 4.51 0 0 1 1.8-1.782c.756-.42 1.602-.63 2.538-.63.936 0 1.782.21 2.538.63.756.408 1.35.996 1.782 1.764.444.768.666 1.662.666 2.682s-.228 1.92-.684 2.7a4.634 4.634 0 0 1-1.818 1.782c-.768.42-1.62.63-2.556.63Zm0-1.44c.588 0 1.14-.138 1.656-.414.516-.276.93-.69 1.242-1.242.324-.552.486-1.224.486-2.016s-.156-1.464-.468-2.016c-.312-.552-.72-.96-1.224-1.224a3.356 3.356 0 0 0-1.638-.414c-.6 0-1.152.138-1.656.414-.492.264-.888.672-1.188 1.224-.3.552-.45 1.224-.45 2.016 0 .804.144 1.482.432 2.034.3.552.696.966 1.188 1.242a3.372 3.372 0 0 0 1.62.396Zm20.352-8.586L96.508 133h-1.691l-2.376-7.83-2.377 7.83h-1.691l-3.097-9.864h1.675l2.268 8.28 2.448-8.28h1.674l2.394 8.298 2.231-8.298h1.62Z" fill="#A0A0A0"/><g clip-path="url(#a)"><path d="M56.572 14v13.999l24.288 14v-14l-24.288-14ZM8 27.998v14l12.144 7v-14L8 27.999Zm36.428 7-12.144 7v41.998L44.428 91V63.001l12.144 7V56l-12.144-7V35Z" fill="#6A6A6A"/><path d="M56.573 14 20.145 34.998v14l24.287-14v14l12.144-7v-28h-.003ZM93 21l-12.144 6.999v14l12.144-7v-14ZM68.716 49.001l-12.143 7V70l12.143-7v-14ZM56.573 70l-12.144-7V91l12.144-7V70Z" fill="#A3A3A3"/><path d="M56.572 0 8 27.999l12.144 7 36.428-21L80.86 28l12.144-7L56.572 0Zm0 41.998-12.144 7 12.144 7 12.144-7-12.144-7Z" fill="#DBDBDB"/></g><defs><clipPath id="a"><path fill="#fff" transform="translate(8)" d="M0 0h85v91H0z"/></clipPath></defs></svg>
